src/topics/icons/google-optimize.svg

<svg height="256" preserveAspectRatio="xMidYMid" viewBox="0 0 256 256" width="256" xmlns="http://www.w3.org/2000/svg" xmlns:xlink="http://www.w3.org/1999/xlink"><defs><linearGradient id="a" x1="-12.283583%" x2="60.109552%" y1="39.14029%" y2="103.140579%"><stop offset="0" stop-color="#37474f" stop-opacity=".2"/><stop offset="1" stop-color="#37474f" stop-opacity=".02"/></linearGradient><path id="b" d="m175.157895 80.8421053h-111.157895-43.7894737c-11.11578946 0-20.2105263 9.0947368-20.2105263 20.2105267v134.736842c0 11.115789 9.09473684 20.210526 20.2105263 20.210526h134.7368417c11.11579 0 20.210527-9.094737 20.210527-20.210526v-43.789474z"/><filter id="c" height="123.4%" width="123.4%" x="-11.7%" y="-8.8%"><feOffset dx="0" dy="5" in="SourceAlpha" result="shadowOffsetOuter1"/><feGaussianBlur in="shadowOffsetOuter1" result="shadowBlurOuter1" stdDeviation="6"/><feColorMatrix in="shadowBlurOuter1" type="matrix" values="0 0 0 0 0   0 0 0 0 0   0 0 0 0 0  0 0 0 0.2 0"/></filter><linearGradient id="d" x1="0%" x2="100%" y1="49.999934%" y2="49.999934%"><stop offset="0" stop-color="#fff" stop-opacity=".1"/><stop offset="1" stop-color="#fff" stop-opacity="0"/></linearGradient><mask id="e" fill="#fff"><path d="m235.789474 0h-154.9473687c-11.1157895 0-20.2105264 9.09473684-20.2105264 20.2105263v60.631579h-40.4210526c-11.11578946 0-20.2105263 9.0947368-20.2105263 20.2105267v134.736842c0 11.115789 9.09473684 20.210526 20.2105263 20.210526h134.7368417c11.11579 0 20.210527-9.094737 20.210527-20.210526v-38.736842h60.631579c11.115789 0 20.210526-9.094737 20.210526-20.210527v-156.6315787c0-11.11578946-9.094737-20.2105263-20.210526-20.2105263z" fill="#fff"/></mask></defs><path d="m60.6315789 20.2105263v60.631579l114.5263161 116.2105267h60.631579c11.115789 0 20.210526-9.094737 20.210526-20.210527v-156.6315787c0-11.11578946-9.094737-20.2105263-20.210526-20.2105263h-154.9473687c-11.1157895 0-20.2105264 9.09473684-20.2105264 20.2105263z" fill="#db4437" mask="url(#e)"/><path d="m175.157895 80.8421053v116.2105267h112.842105z" fill="url(#a)" mask="url(#e)"/><path d="m80.8421053 197.052632h154.9473687c11.115789 0 20.210526-9.094737 20.210526-20.210527v-1.68421c0 11.115789-9.094737 20.210526-20.210526 20.210526h-154.9473687c-11.1157895 0-20.2105264-9.094737-20.2105264-20.210526v1.68421c0 11.11579 9.0947369 20.210527 20.2105264 20.210527z" fill="#a52714" mask="url(#e)" opacity=".2"/><g mask="url(#e)"><use filter="url(#c)" xlink:href="#b"/><use fill="#ff8a80" fill-rule="evenodd" xlink:href="#b"/></g><path d="m235.789474 0h-154.9473687c-11.1157895 0-20.2105264 9.09473684-20.2105264 20.2105263v1.6842105c0-11.1157894 9.0947369-20.21052627 20.2105264-20.21052627h154.9473687c11.115789 0 20.210526 9.09473687 20.210526 20.21052627v-1.6842105c0-11.11578946-9.094737-20.2105263-20.210526-20.2105263z" fill="#fff" mask="url(#e)" opacity=".2"/><path d="m20.2105263 256h134.7368417c11.11579 0 20.210527-9.094737 20.210527-20.210526v-1.684211c0 11.11579-9.094737 20.210526-20.210527 20.210526h-134.7368417c-11.11578946 0-20.2105263-9.094736-20.2105263-20.210526v1.684211c0 11.115789 9.09473684 20.210526 20.2105263 20.210526z" fill="#c53929" mask="url(#e)" opacity=".2"/><path d="m175.157895 82.5263158h-154.9473687c-11.11578946 0-20.2105263 9.0947368-20.2105263 20.2105262v-1.68421c0-11.1157899 9.09473684-20.2105267 20.2105263-20.2105267h154.9473687z" fill="#fff" mask="url(#e)" opacity=".2"/><path d="m235.789474 0h-154.9473687c-11.1157895 0-20.2105264 9.09473684-20.2105264 20.2105263v60.631579h-40.4210526c-11.11578946 0-20.2105263 9.0947368-20.2105263 20.2105267v134.736842c0 11.115789 9.09473684 20.210526 20.2105263 20.210526h134.7368417c11.11579 0 20.210527-9.094737 20.210527-20.210526v-38.736842h60.631579c11.115789 0 20.210526-9.094737 20.210526-20.210527v-156.6315787c0-11.11578946-9.094737-20.2105263-20.210526-20.2105263z" fill="url(#d)"/></svg>

<?xml version="1.0" encoding="UTF-8"?>
<svg width="256px" height="256px" viewBox="0 0 256 256" version="1.1" xmlns="http://www.w3.org/2000/svg" xmlns:xlink="http://www.w3.org/1999/xlink" preserveAspectRatio="xMidYMid">
    <defs>
        <path d="M235.789474,0 L80.8421053,0 C69.7263158,0 60.6315789,9.09473684 60.6315789,20.2105263 L60.6315789,80.8421053 L20.2105263,80.8421053 C9.09473684,80.8421053 0,89.9368421 0,101.052632 L0,235.789474 C0,246.905263 9.09473684,256 20.2105263,256 L154.947368,256 C166.063158,256 175.157895,246.905263 175.157895,235.789474 L175.157895,197.052632 L235.789474,197.052632 C246.905263,197.052632 256,187.957895 256,176.842105 L256,20.2105263 C256,9.09473684 246.905263,0 235.789474,0 Z" id="path-1"></path>
        <linearGradient x1="-12.2835825%" y1="39.1402895%" x2="60.1095519%" y2="103.140579%" id="linearGradient-3">
            <stop stop-color="#37474F" stop-opacity="0.2" offset="0%"></stop>
            <stop stop-color="#37474F" stop-opacity="0.02" offset="100%"></stop>
        </linearGradient>
        <path d="M175.157895,80.8421053 L64,80.8421053 L20.2105263,80.8421053 C9.09473684,80.8421053 0,89.9368421 0,101.052632 L0,235.789474 C0,246.905263 9.09473684,256 20.2105263,256 L154.947368,256 C166.063158,256 175.157895,246.905263 175.157895,235.789474 L175.157895,192 L175.157895,80.8421053 Z" id="path-4"></path>
        <filter x="-11.7%" y="-8.8%" width="123.4%" height="123.4%" filterUnits="objectBoundingBox" id="filter-5">
            <feOffset dx="0" dy="5" in="SourceAlpha" result="shadowOffsetOuter1"></feOffset>
            <feGaussianBlur stdDeviation="6" in="shadowOffsetOuter1" result="shadowBlurOuter1"></feGaussianBlur>
            <feColorMatrix values="0 0 0 0 0   0 0 0 0 0   0 0 0 0 0  0 0 0 0.2 0" type="matrix" in="shadowBlurOuter1"></feColorMatrix>
        </filter>
        <linearGradient x1="0%" y1="49.9999342%" x2="100%" y2="49.9999342%" id="linearGradient-6">
            <stop stop-color="#FFFFFF" stop-opacity="0.1" offset="0%"></stop>
            <stop stop-color="#FFFFFF" stop-opacity="0" offset="100%"></stop>
        </linearGradient>
    </defs>
		<g>
				<g>
						<mask id="mask-2" fill="white">
								<use xlink:href="#path-1"></use>
						</mask>
						<path d="M60.6315789,20.2105263 L60.6315789,80.8421053 L175.157895,197.052632 L235.789474,197.052632 C246.905263,197.052632 256,187.957895 256,176.842105 L256,20.2105263 C256,9.09473684 246.905263,0 235.789474,0 L80.8421053,0 C69.7263158,0 60.6315789,9.09473684 60.6315789,20.2105263 Z" fill="#DB4437" fill-rule="nonzero" mask="url(#mask-2)"></path>
						<polygon fill="url(#linearGradient-3)" fill-rule="nonzero" mask="url(#mask-2)" points="175.157895 80.8421053 175.157895 197.052632 288 197.052632"></polygon>
						<path d="M80.8421053,197.052632 L235.789474,197.052632 C246.905263,197.052632 256,187.957895 256,176.842105 L256,175.157895 C256,186.273684 246.905263,195.368421 235.789474,195.368421 L80.8421053,195.368421 C69.7263158,195.368421 60.6315789,186.273684 60.6315789,175.157895 L60.6315789,176.842105 C60.6315789,187.957895 69.7263158,197.052632 80.8421053,197.052632 Z" fill="#A52714" fill-rule="nonzero" opacity="0.2" mask="url(#mask-2)"></path>
						<g mask="url(#mask-2)" fill-rule="nonzero">
								<use fill="black" fill-opacity="1" filter="url(#filter-5)" xlink:href="#path-4"></use>
								<use fill="#FF8A80" fill-rule="evenodd" xlink:href="#path-4"></use>
						</g>
						<path d="M235.789474,0 L80.8421053,0 C69.7263158,0 60.6315789,9.09473684 60.6315789,20.2105263 L60.6315789,21.8947368 C60.6315789,10.7789474 69.7263158,1.68421053 80.8421053,1.68421053 L235.789474,1.68421053 C246.905263,1.68421053 256,10.7789474 256,21.8947368 L256,20.2105263 C256,9.09473684 246.905263,0 235.789474,0 Z" fill="#FFFFFF" fill-rule="nonzero" opacity="0.2" mask="url(#mask-2)"></path>
						<path d="M20.2105263,256 L154.947368,256 C166.063158,256 175.157895,246.905263 175.157895,235.789474 L175.157895,234.105263 C175.157895,245.221053 166.063158,254.315789 154.947368,254.315789 L20.2105263,254.315789 C9.09473684,254.315789 0,245.221053 0,234.105263 L0,235.789474 C0,246.905263 9.09473684,256 20.2105263,256 Z" fill="#C53929" fill-rule="nonzero" opacity="0.2" mask="url(#mask-2)"></path>
						<path d="M175.157895,82.5263158 L20.2105263,82.5263158 C9.09473684,82.5263158 0,91.6210526 0,102.736842 L0,101.052632 C0,89.9368421 9.09473684,80.8421053 20.2105263,80.8421053 L175.157895,80.8421053 L175.157895,82.5263158 Z" fill="#FFFFFF" fill-rule="nonzero" opacity="0.2" mask="url(#mask-2)"></path>
				</g>
				<path d="M235.789474,0 L80.8421053,0 C69.7263158,0 60.6315789,9.09473684 60.6315789,20.2105263 L60.6315789,80.8421053 L20.2105263,80.8421053 C9.09473684,80.8421053 0,89.9368421 0,101.052632 L0,235.789474 C0,246.905263 9.09473684,256 20.2105263,256 L154.947368,256 C166.063158,256 175.157895,246.905263 175.157895,235.789474 L175.157895,197.052632 L235.789474,197.052632 C246.905263,197.052632 256,187.957895 256,176.842105 L256,20.2105263 C256,9.09473684 246.905263,0 235.789474,0 Z" fill="url(#linearGradient-6)" fill-rule="nonzero"></path>
		</g>
</svg>
